favicon.svg

<svg width="32" height="32" viewBox="0 0 32 32" fill="none" xmlns="http://www.w3.org/2000/svg">
<rect width="32" height="32" rx="5" fill="#A45827"/>
<g clip-path="url(#clip0_1_37)">
<path d="M23.82 6H8.18C6.97602 6 6 6.97602 6 8.18V23.82C6 25.024 6.97602 26 8.18 26H23.82C25.024 26 26 25.024 26 23.82V8.18C26 6.97602 25.024 6 23.82 6Z" stroke="#6D2E06" stroke-linecap="round" stroke-linejoin="round"/>
<path d="M11 6V26" stroke="#6D2E06" stroke-linecap="round" stroke-linejoin="round"/>
<path d="M21 6V26" stroke="#6D2E06" stroke-linecap="round" stroke-linejoin="round"/>
<path d="M6 16H26" stroke="#6D2E06" stroke-linecap="round" stroke-linejoin="round"/>
<path d="M6 21H11" stroke="#6D2E06" stroke-linecap="round" stroke-linejoin="round"/>
<path d="M21 21H26" stroke="#6D2E06" stroke-linecap="round" stroke-linejoin="round"/>
<path d="M21 11H26" stroke="#6D2E06" stroke-linecap="round" stroke-linejoin="round"/>
<path d="M6 11H11" stroke="#6D2E06" stroke-linecap="round" stroke-linejoin="round"/>
<path d="M8.693 13.84C8.693 13.3633 8.83233 12.9893 9.111 12.718C9.38967 12.4393 9.782 12.3 10.288 12.3H12.279C13.3423 12.3 14.1417 12.5127 14.677 12.938C15.2197 13.3633 15.491 13.9903 15.491 14.819C15.491 15.6037 15.2527 16.2123 14.776 16.645C14.2993 17.0777 13.6393 17.294 12.796 17.294L14.622 19.142C14.7393 19.2593 14.798 19.3877 14.798 19.527C14.798 19.681 14.7247 19.8203 14.578 19.945C14.4387 20.0477 14.303 20.099 14.171 20.099C13.9877 20.099 13.8117 20.011 13.643 19.835L11.223 17.327H9.98V19.516C9.98 19.6993 9.91767 19.846 9.793 19.956C9.67567 20.0587 9.52167 20.11 9.331 20.11C9.133 20.11 8.97533 20.0587 8.858 19.956C8.748 19.846 8.693 19.6993 8.693 19.516V13.84ZM12.268 16.315C12.972 16.315 13.467 16.205 13.753 15.985C14.0463 15.7577 14.193 15.369 14.193 14.819C14.193 14.2837 14.0353 13.8987 13.72 13.664C13.4047 13.4293 12.9207 13.312 12.268 13.312H10.475C10.321 13.312 10.2 13.3633 10.112 13.466C10.024 13.5613 9.98 13.697 9.98 13.873V16.315H12.268ZM20.2269 20.11C19.5229 20.11 18.8593 19.989 18.2359 19.747C17.6199 19.505 17.1029 19.1677 16.6849 18.735C16.5896 18.647 16.5419 18.5407 16.5419 18.416C16.5419 18.262 16.6079 18.1263 16.7399 18.009C16.8353 17.9137 16.9416 17.866 17.0589 17.866C17.2129 17.866 17.3706 17.943 17.5319 18.097C17.8619 18.4197 18.2579 18.669 18.7199 18.845C19.1893 19.0137 19.6916 19.098 20.2269 19.098C20.7696 19.098 21.1876 19.0027 21.4809 18.812C21.7816 18.6213 21.9319 18.3537 21.9319 18.009C21.9319 17.6717 21.7779 17.4003 21.4699 17.195C21.1619 16.9823 20.6376 16.7953 19.8969 16.634C18.8043 16.3993 18.0123 16.0913 17.5209 15.71C17.0296 15.3213 16.7839 14.8227 16.7839 14.214C16.7839 13.818 16.9086 13.466 17.1579 13.158C17.4146 12.85 17.7703 12.6117 18.2249 12.443C18.6869 12.2743 19.2186 12.19 19.8199 12.19C20.4946 12.19 21.0996 12.3037 21.6349 12.531C22.1776 12.7583 22.5773 13.0737 22.8339 13.477C22.9073 13.5943 22.9439 13.708 22.9439 13.818C22.9439 13.9793 22.8633 14.115 22.7019 14.225C22.6066 14.2837 22.5113 14.313 22.4159 14.313C22.3279 14.313 22.2399 14.291 22.1519 14.247C22.0639 14.203 21.9906 14.1443 21.9319 14.071C21.7193 13.7923 21.4259 13.5797 21.0519 13.433C20.6853 13.279 20.2746 13.202 19.8199 13.202C19.2479 13.202 18.8079 13.29 18.4999 13.466C18.1993 13.6347 18.0489 13.884 18.0489 14.214C18.0489 14.522 18.1956 14.775 18.4889 14.973C18.7823 15.1637 19.2993 15.3433 20.0399 15.512C21.1619 15.776 21.9686 16.1023 22.4599 16.491C22.9513 16.8797 23.1969 17.3857 23.1969 18.009C23.1969 18.427 23.0723 18.7973 22.8229 19.12C22.5809 19.4353 22.2363 19.681 21.7889 19.857C21.3416 20.0257 20.8209 20.11 20.2269 20.11Z" fill="#DFE0E2"/>
</g>
<defs>
<clipPath id="clip0_1_37">
<rect width="24" height="24" fill="white" transform="translate(4 4)"/>
</clipPath>
</defs>
</svg>

<svg xmlns="http://www.w3.org/2000/svg" width="32" height="32" fill="none">
  <rect width="32" height="32" fill="#2C4117" rx="5"/>
  <g clip-path="url(#a)">
    <path stroke="#576435" stroke-linecap="round" stroke-linejoin="round" d="M23.82 6H8.18A2.18 2.18 0 0 0 6 8.18v15.64A2.18 2.18 0 0 0 8.18 26h15.64A2.18 2.18 0 0 0 26 23.82V8.18A2.18 2.18 0 0 0 23.82 6ZM11 6v20M21 6v20M6 16h20M6 21h5M21 21h5M21 11h5M6 11h5"/>
    <path fill="#fff" d="M8.693 13.84c0-.477.14-.85.418-1.122.279-.279.671-.418 1.177-.418h1.991c1.063 0 1.863.213 2.398.638.543.425.814 1.052.814 1.881 0 .785-.238 1.393-.715 1.826-.477.433-1.137.649-1.98.649l1.826 1.848a.536.536 0 0 1 .176.385c0 .154-.073.293-.22.418a.69.69 0 0 1-.407.154c-.183 0-.36-.088-.528-.264l-2.42-2.508H9.98v2.189c0 .183-.062.33-.187.44a.676.676 0 0 1-.462.154c-.198 0-.356-.051-.473-.154a.595.595 0 0 1-.165-.44V13.84Zm3.575 2.475c.704 0 1.199-.11 1.485-.33.293-.227.44-.616.44-1.166 0-.535-.158-.92-.473-1.155-.315-.235-.8-.352-1.452-.352h-1.793a.453.453 0 0 0-.363.154c-.088.095-.132.231-.132.407v2.442h2.288Zm7.959 3.795a5.453 5.453 0 0 1-1.991-.363 4.315 4.315 0 0 1-1.551-1.012.419.419 0 0 1-.143-.319c0-.154.066-.29.198-.407a.442.442 0 0 1 .319-.143c.154 0 .312.077.473.231.33.323.726.572 1.188.748.47.169.972.253 1.507.253.543 0 .96-.095 1.254-.286.3-.19.45-.458.45-.803 0-.337-.153-.609-.461-.814-.308-.213-.832-.4-1.573-.561-1.093-.235-1.885-.543-2.376-.924-.491-.389-.737-.887-.737-1.496 0-.396.125-.748.374-1.056.257-.308.612-.546 1.067-.715.462-.169.994-.253 1.595-.253.675 0 1.28.114 1.815.341.543.227.942.543 1.199.946.073.117.11.231.11.341 0 .161-.08.297-.242.407a.541.541 0 0 1-.286.088.65.65 0 0 1-.484-.242 1.989 1.989 0 0 0-.88-.638 3.153 3.153 0 0 0-1.232-.231c-.572 0-1.012.088-1.32.264-.3.169-.451.418-.451.748 0 .308.147.561.44.759.293.19.81.37 1.55.539 1.123.264 1.93.59 2.42.979.492.389.738.895.738 1.518 0 .418-.125.788-.374 1.111-.242.315-.587.561-1.034.737-.447.169-.968.253-1.562.253Z"/>
  </g>
  <defs>
    <clipPath id="a">
      <path fill="#fff" d="M4 4h24v24H4z"/>
    </clipPath>
  </defs>
</svg>
